assets/icons/traton/link_broken.svg

<svg xmlns="http://www.w3.org/2000/svg" width="32" height="32" viewBox="0 0 32 32" fill="none">
<path d="M20.5791 29.235L18.6475 29.7549L17.5625 25.7192L19.4941 25.1994L20.5791 29.235ZM10.7012 15.8353L5.43262 21.1071L11.0762 26.755L16.3457 21.4823L17.7686 22.907L11.0762 29.6024L2.58594 21.1071L9.27832 14.4107L10.7012 15.8353ZM26.5684 25.1877L25.1465 26.5957L22.209 23.6252L23.6299 22.2171L26.5684 25.1877ZM29.7471 18.6554L29.2256 20.5882L25.1934 19.4987L25.7158 17.5659L29.7471 18.6554ZM29.5859 11.0815L22.8936 17.7779L21.4707 16.3532L26.7393 11.0815L21.0957 5.43356L15.8262 10.7063L14.4033 9.28159L21.0957 2.58614L29.5859 11.0815ZM6.80566 12.4798L6.28418 14.4116L2.25195 13.3221L2.77344 11.3903L6.80566 12.4798ZM9.78906 8.41778L8.3457 9.80338L5.4541 6.78789L6.89746 5.40229L9.78906 8.41778ZM14.4453 6.29052L12.5137 6.81037L11.4287 2.77473L13.3604 2.25488L14.4453 6.29052Z" fill="#001D21" />
</svg>

<svg xmlns="http://www.w3.org/2000/svg" fill="none" viewBox="0 0 32 32"><path fill="#001d21" d="m20.6 29.2-2 .6-1-4 1.9-.6zm-9.9-13.4-5.3 5.3 5.7 5.7 5.2-5.3 1.5 1.4-6.7 6.7-8.5-8.5 6.7-6.7zm15.9 9.4L25 26.6l-2.9-3 1.4-1.4zm3.1-6.5-.5 1.9-4-1.1.5-2zm-.1-7.6-6.7 6.7-1.4-1.4 5.2-5.3-5.6-5.7-5.3 5.3-1.4-1.4 6.7-6.7zM6.8 12.5l-.5 2-4-1.2.5-2zm3-4L8.3 9.7l-2.8-3 1.4-1.4zm4.6-2.2-1.9.5-1-4 1.9-.5z"/></svg>
